public/svg/usecases/slider/onchain-account.svg

<svg width="32" height="32" viewBox="0 0 32 32" fill="none" xmlns="http://www.w3.org/2000/svg">
<g clip-path="url(#clip0_225_3129)">
<path d="M22.2861 24.9178H8.14669C7.70621 24.9178 7.26397 24.9486 6.84279 24.7927C6.17416 24.5463 5.68629 23.923 5.55643 23.2092C5.52484 23.0371 5.5266 22.8649 5.5266 22.691C5.5266 21.3448 5.5266 20.0004 5.5266 18.6542C5.5266 17.308 5.5266 14.3492 5.5266 12.1967V7.2594C5.5266 6.84992 5.49676 6.42232 5.61259 6.02553C5.8144 5.32434 6.38124 4.78078 7.06742 4.60866C7.28678 4.5543 7.50615 4.55249 7.72902 4.55249H18.0515L17.8654 4.47277C19.1027 5.71208 20.3416 6.95139 21.5789 8.18889C21.7544 8.36463 21.9298 8.54039 22.1053 8.71614L22.0281 8.52408V17.0833C22.0281 17.433 22.5546 17.433 22.5546 17.0833V8.90276C22.5546 8.68896 22.595 8.46248 22.4405 8.29578C21.6806 7.48045 20.8611 6.71585 20.0731 5.92769L18.7306 4.58329L18.3305 4.18287C18.2428 4.0959 18.1796 4.02161 18.0462 4.00893C17.8461 3.98719 17.6338 4.00893 17.4337 4.00893H8.28884C8.04491 4.00893 7.80097 4.00712 7.5588 4.00893C6.74276 4.01618 5.98463 4.39667 5.49501 5.0743C4.97906 5.78999 5.00012 6.5872 5.00012 7.41885C5.00012 9.8721 5.00012 12.3272 5.00012 14.7804C5.00012 17.2337 5.00012 19.6543 5.00012 22.0931C5.00012 22.3196 5.00012 22.546 5.00012 22.7725C5.00012 23.4049 5.18439 24.001 5.57047 24.4956C6.05483 25.1153 6.78838 25.4523 7.55353 25.4595C7.74482 25.4595 7.9361 25.4595 8.12739 25.4595H22.2861C22.6248 25.4595 22.6248 24.9159 22.2861 24.9159V24.9178Z" fill="#252B37"/>
<path d="M17.7871 4.28082V8.53868C17.7871 8.68544 17.9082 8.81046 18.0503 8.81046H22.292C22.6307 8.81046 22.6307 8.26691 22.292 8.26691H18.0503L18.3136 8.53868V4.28082C18.3136 3.93113 17.7871 3.93113 17.7871 4.28082Z" fill="#252B37"/>
<path d="M25.0317 21.1854C25.0195 22.6928 24.1051 24.0916 22.7188 24.608C21.3324 25.1244 19.7319 24.6841 18.7754 23.5009C17.819 22.3178 17.719 20.5983 18.4841 19.2956C19.2493 17.9929 20.7673 17.3044 22.2116 17.6142C23.8437 17.9657 25.0195 19.4695 25.0317 21.1854C25.0353 21.5351 25.5617 21.5351 25.5582 21.1854C25.5442 19.4333 24.4807 17.857 22.8872 17.25C21.299 16.6449 19.4335 17.1739 18.3683 18.531C17.3031 19.8881 17.1469 21.8431 18.0314 23.3487C18.9158 24.8544 20.6304 25.6208 22.2941 25.291C24.1806 24.9178 25.5442 23.1494 25.5582 21.1836C25.5617 20.8339 25.0353 20.8339 25.0317 21.1836V21.1854Z" fill="#252B37"/>
<path d="M24.514 23.7818C25.4196 24.8907 26.3251 25.9977 27.2324 27.1066C27.4816 27.4128 27.5816 27.8223 27.3201 28.1665C27.0007 28.5869 26.4374 28.5199 26.1233 28.1412C25.6565 27.5813 25.2002 27.0124 24.7404 26.4489C24.2806 25.8854 23.8033 25.302 23.3347 24.7276C23.1153 24.4595 22.7451 24.8454 22.9627 25.1117C23.8945 26.2514 24.8141 27.4019 25.7583 28.5307C26.1496 29 26.8024 29.1359 27.3359 28.846C27.9765 28.4963 28.2011 27.6085 27.8062 26.9816C27.6746 26.7714 27.4956 26.5848 27.3394 26.3945L26.4585 25.3165C25.9355 24.6769 25.4125 24.0355 24.8878 23.3959C24.6684 23.1278 24.2982 23.5137 24.5158 23.78L24.514 23.7818Z" fill="#252B37"/>
<path d="M9.43789 16.895H8.80787C8.56557 16.895 8.36914 17.0978 8.36914 17.348V21.1094C8.36914 21.3596 8.56557 21.5624 8.80787 21.5624H9.43789C9.68019 21.5624 9.87662 21.3596 9.87662 21.1094V17.348C9.87662 17.0978 9.68019 16.895 9.43789 16.895Z" fill="#3B82F6"/>
<path d="M12.9621 21.3267H11.4546L11.7179 21.5985V13.8746L11.4546 14.1463H12.9621L12.6989 13.8746V21.5985C12.6989 21.9482 13.2254 21.9482 13.2254 21.5985V13.8746C13.2254 13.7278 13.1043 13.6028 12.9621 13.6028H11.4546C11.3125 13.6028 11.1914 13.7278 11.1914 13.8746V21.5985C11.1914 21.7453 11.3125 21.8703 11.4546 21.8703H12.9621C13.3008 21.8703 13.3008 21.3267 12.9621 21.3267Z" fill="#252B37"/>
<path d="M15.6098 16.895H14.9797C14.7374 16.895 14.541 17.0978 14.541 17.348V21.1094C14.541 21.3596 14.7374 21.5624 14.9797 21.5624H15.6098C15.8521 21.5624 16.0485 21.3596 16.0485 21.1094V17.348C16.0485 17.0978 15.8521 16.895 15.6098 16.895Z" fill="#3B82F6"/>
<path d="M17.8917 21.5986V12.3128L17.6285 12.5846H19.136L18.8727 12.3128V17.8281C18.8727 18.1778 19.3992 18.1778 19.3992 17.8281V12.3128C19.3992 12.166 19.2781 12.041 19.136 12.041H17.6285C17.4863 12.041 17.3652 12.166 17.3652 12.3128V21.5986C17.3652 21.9482 17.8917 21.9482 17.8917 21.5986Z" fill="#252B37"/>
<path d="M8.45381 14.9272C9.45412 13.8763 10.4527 12.8236 11.453 11.7728C11.5951 11.6242 11.7355 11.4738 11.8777 11.3252H11.5056C12.427 12.0826 13.3483 12.8399 14.2696 13.5955C14.403 13.706 14.5381 13.8165 14.6715 13.9252C14.7838 14.0176 14.933 14.0376 15.0435 13.9252C16.2246 12.7403 17.4057 11.5553 18.5867 10.3722C18.7534 10.2037 18.9219 10.037 19.0886 9.86849C19.3326 9.62389 18.9588 9.23978 18.7166 9.48438C17.5355 10.6693 16.3545 11.8543 15.1734 13.0374C15.0067 13.2059 14.8382 13.3726 14.6715 13.5411H15.0435C14.1222 12.7838 13.2009 12.0264 12.2795 11.2709C12.1462 11.1603 12.011 11.0498 11.8777 10.9411C11.7671 10.8505 11.6144 10.827 11.5056 10.9411C10.5053 11.992 9.50676 13.0447 8.50646 14.0956C8.36431 14.2441 8.22392 14.3945 8.08177 14.5431C7.84485 14.7931 8.2169 15.1772 8.45381 14.9272Z" fill="#252B37"/>
<path d="M11.8177 12.0538C12.2412 12.0538 12.5846 11.6993 12.5846 11.262C12.5846 10.8247 12.2412 10.4702 11.8177 10.4702C11.3941 10.4702 11.0508 10.8247 11.0508 11.262C11.0508 11.6993 11.3941 12.0538 11.8177 12.0538Z" fill="#3B82F6"/>
<path d="M18.6946 10.7437C19.1182 10.7437 19.4615 10.3892 19.4615 9.95194C19.4615 9.51465 19.1182 9.16016 18.6946 9.16016C18.2711 9.16016 17.9277 9.51465 17.9277 9.95194C17.9277 10.3892 18.2711 10.7437 18.6946 10.7437Z" fill="#3B82F6"/>
<path d="M8.4544 15.5577C8.87795 15.5577 9.2213 15.2032 9.2213 14.7659C9.2213 14.3286 8.87795 13.9741 8.4544 13.9741C8.03085 13.9741 7.6875 14.3286 7.6875 14.7659C7.6875 15.2032 8.03085 15.5577 8.4544 15.5577Z" fill="#3B82F6"/>
<path d="M14.9857 14.5306C15.4092 14.5306 15.7526 14.1761 15.7526 13.7388C15.7526 13.3015 15.4092 12.947 14.9857 12.947C14.5621 12.947 14.2188 13.3015 14.2188 13.7388C14.2188 14.1761 14.5621 14.5306 14.9857 14.5306Z" fill="#3B82F6"/>
<path d="M7.21887 21.9754H17.3623C17.701 21.9754 17.701 21.4319 17.3623 21.4319H7.21887C6.88017 21.4319 6.88017 21.9754 7.21887 21.9754Z" fill="#252B37"/>
<path d="M22.2307 19.3101C22.343 19.4659 22.4149 19.6308 22.4518 19.8102C22.4606 19.8537 22.4922 19.8373 22.5132 19.8373C22.6817 19.8373 22.8502 19.8373 23.0186 19.8373C23.1432 19.8373 23.1766 19.8736 23.1766 20.004C23.1766 20.1073 23.1766 20.2106 23.1766 20.3121C23.1766 20.4099 23.138 20.4479 23.0414 20.4479C22.8712 20.4479 22.6992 20.4498 22.529 20.4479C22.4834 20.4479 22.4641 20.4588 22.4553 20.5077C22.336 21.102 21.9674 21.4535 21.4199 21.6293C21.2953 21.6691 21.1672 21.6891 21.0338 21.7162C21.1356 21.8322 21.2356 21.9427 21.3322 22.0551C21.6691 22.4482 21.999 22.8468 22.3184 23.2563C22.429 23.3976 22.5395 23.5353 22.6519 23.6749C22.6834 23.7147 22.6957 23.7546 22.6729 23.8035C22.6501 23.8506 22.6132 23.8742 22.5588 23.8742C22.336 23.8724 22.1131 23.8705 21.8902 23.8742C21.8288 23.8742 21.7937 23.8397 21.7604 23.7981C21.6287 23.6368 21.5024 23.4737 21.369 23.3143C21.1532 23.0516 20.9338 22.7925 20.7162 22.5316C20.4951 22.267 20.2687 22.008 20.037 21.7525C20.0002 21.7126 19.9844 21.6709 19.9844 21.6148C19.9879 21.4807 19.9844 21.3448 19.9844 21.2107C19.9844 21.1093 20.0247 21.0676 20.1213 21.0658C20.3336 21.0622 20.5477 21.0785 20.7601 21.0513C21.0215 21.0169 21.269 20.9498 21.4585 20.7415C21.5234 20.6708 21.5621 20.5856 21.5989 20.4987C21.6147 20.4606 21.6059 20.4461 21.5638 20.4479C21.4339 20.4479 21.3023 20.4479 21.1725 20.4479C20.8285 20.4479 20.4845 20.4479 20.1406 20.4479C20.0125 20.4479 19.9844 20.4171 19.9844 20.2831C19.9844 20.1798 19.9844 20.0765 19.9844 19.975C19.9844 19.8863 20.0195 19.8446 20.1055 19.8392C20.1388 19.8373 20.1722 19.8392 20.2055 19.8392C20.6302 19.8392 21.0549 19.8392 21.4796 19.8392C21.5024 19.8392 21.534 19.8518 21.5445 19.8283C21.555 19.8029 21.5287 19.7812 21.5147 19.7594C21.3918 19.5837 21.2146 19.5076 21.0198 19.4659C20.7302 19.4043 20.4354 19.4261 20.1423 19.4224C20.0142 19.4224 19.9844 19.3916 19.9844 19.2576C19.9844 19.118 19.9844 18.9785 19.9844 18.839C19.9844 18.7412 20.023 18.7031 20.1177 18.7031C21.09 18.7031 22.0622 18.7031 23.0344 18.7031C23.1169 18.7031 23.1608 18.7394 23.1625 18.8245C23.166 18.9459 23.166 19.0691 23.1625 19.1923C23.1608 19.2793 23.1152 19.3155 23.0186 19.3155C22.7765 19.3155 22.5343 19.3155 22.2921 19.3137C22.2728 19.3137 22.2517 19.3137 22.2219 19.3137L22.2307 19.3101Z" fill="#3B82F6"/>
</g>
<defs>
<clipPath id="clip0_225_3129">
<rect width="23" height="25" fill="white" transform="translate(5 4)"/>
</clipPath>
</defs>
</svg>

<svg xmlns="http://www.w3.org/2000/svg" width="32" height="32" fill="none" viewBox="0 0 32 32"><g clip-path="url(#a)"><path fill="#252b37" d="M22.286 24.918H8.146c-.44 0-.882.03-1.303-.125-.669-.247-1.157-.87-1.287-1.584-.031-.172-.03-.344-.03-.518V7.259c0-.41-.03-.837.087-1.233a2.05 2.05 0 0 1 1.454-1.417c.22-.055.44-.057.662-.057h10.323l-.187-.08L21.58 8.19l.526.527-.077-.192v8.56c0 .349.527.349.527 0V8.902c0-.214.04-.44-.114-.607-.76-.816-1.58-1.58-2.368-2.368l-1.342-1.345-.4-.4c-.088-.087-.151-.161-.285-.174-.2-.022-.412 0-.612 0H7.559a2.55 2.55 0 0 0-2.064 1.065C4.979 5.79 5 6.587 5 7.42v15.354c0 .632.184 1.228.57 1.723.485.62 1.218.956 1.984.963h14.733c.338 0 .338-.543 0-.543z"/><path fill="#252b37" d="M17.787 4.28v4.26c0 .146.121.271.263.271h4.242c.339 0 .339-.543 0-.543H18.05l.264.272V4.28c0-.35-.527-.35-.527 0m7.245 16.905c-.012 1.508-.927 2.907-2.313 3.423s-2.987.076-3.944-1.107-1.056-2.903-.29-4.205c.764-1.303 2.282-1.992 3.727-1.682 1.632.352 2.808 1.855 2.82 3.571.003.35.53.35.526 0-.014-1.752-1.077-3.328-2.67-3.935-1.589-.605-3.455-.076-4.52 1.281s-1.221 3.312-.337 4.818 2.6 2.272 4.263 1.942c1.887-.373 3.25-2.142 3.264-4.107.004-.35-.523-.35-.526 0z"/><path fill="#252b37" d="m24.514 23.782 2.718 3.325c.25.306.35.715.088 1.06-.32.42-.883.353-1.197-.026-.466-.56-.923-1.129-1.383-1.692l-1.405-1.721c-.22-.269-.59.117-.372.384.931 1.14 1.851 2.29 2.795 3.419a1.26 1.26 0 0 0 1.578.315c.64-.35.865-1.238.47-1.864-.131-.21-.31-.397-.467-.587l-.88-1.078q-.784-.961-1.571-1.921c-.22-.268-.59.118-.372.384z"/><path fill="#3b82f6" d="M9.438 16.895h-.63a.446.446 0 0 0-.439.453v3.761c0 .25.197.453.439.453h.63a.446.446 0 0 0 .439-.453v-3.761a.446.446 0 0 0-.44-.453"/><path fill="#252b37" d="M12.962 21.327h-1.507l.263.271v-7.723l-.263.271h1.507l-.263-.271v7.724c0 .35.526.35.526 0v-7.724a.27.27 0 0 0-.263-.272h-1.507a.27.27 0 0 0-.264.272v7.724c0 .146.121.271.264.271h1.507c.339 0 .339-.543 0-.543"/><path fill="#3b82f6" d="M15.61 16.895h-.63a.446.446 0 0 0-.439.453v3.761c0 .25.196.453.439.453h.63a.446.446 0 0 0 .439-.453v-3.761a.446.446 0 0 0-.44-.453"/><path fill="#252b37" d="M17.892 21.599v-9.286l-.264.272h1.508l-.263-.272v5.515c0 .35.526.35.526 0v-5.515a.27.27 0 0 0-.263-.272h-1.508a.27.27 0 0 0-.263.272v9.286c0 .35.527.35.527 0m-9.438-6.672q1.5-1.576 2.999-3.154.212-.225.425-.448h-.372l3.165 2.6c.113.093.262.113.373 0q1.77-1.778 3.543-3.553l.502-.504c.244-.244-.13-.628-.372-.384q-1.771 1.778-3.544 3.553-.25.253-.502.504h.373l-2.764-2.27-.402-.33c-.11-.09-.264-.114-.372 0l-3 3.155-.424.447c-.237.25.135.634.372.384"/><path fill="#3b82f6" d="M11.818 12.054a.78.78 0 0 0 .767-.792.78.78 0 0 0-.767-.792.78.78 0 0 0-.767.792.78.78 0 0 0 .767.792m6.877-1.31a.78.78 0 0 0 .767-.792.78.78 0 0 0-.767-.792.78.78 0 0 0-.767.792.78.78 0 0 0 .767.792M8.454 15.558a.78.78 0 0 0 .767-.792.78.78 0 0 0-.767-.792.78.78 0 0 0-.767.792.78.78 0 0 0 .767.792m6.532-1.028a.78.78 0 0 0 .767-.791.78.78 0 0 0-.767-.792.78.78 0 0 0-.767.792.78.78 0 0 0 .767.792"/><path fill="#252b37" d="M7.219 21.975h10.143c.339 0 .339-.543 0-.543H7.22c-.339 0-.339.543 0 .543"/><path fill="#3b82f6" d="M22.23 19.31q.168.232.222.5c.009.044.04.027.061.027h.506c.124 0 .158.037.158.167v.308c0 .098-.039.136-.136.136h-.512c-.046 0-.065.01-.074.06-.119.594-.488.945-1.035 1.121-.125.04-.253.06-.386.087q.154.172.298.34.506.586.986 1.2.166.212.334.419c.031.04.044.08.02.128a.12.12 0 0 1-.113.071q-.335-.004-.669 0c-.061 0-.096-.034-.13-.076-.131-.161-.258-.324-.391-.484q-.325-.392-.653-.782a26 26 0 0 0-.679-.78.2.2 0 0 1-.053-.137c.004-.134 0-.27 0-.404 0-.102.04-.143.137-.145.213-.004.427.012.64-.015.26-.034.508-.101.698-.31a.8.8 0 0 0 .14-.242c.016-.038.007-.053-.035-.051H20.14c-.128 0-.157-.03-.157-.165v-.308c0-.089.035-.13.121-.136q.05-.002.1 0h1.275c.022 0 .054.013.064-.01.011-.026-.015-.048-.03-.07-.122-.175-.3-.251-.494-.293-.29-.062-.585-.04-.878-.044-.128 0-.158-.03-.158-.164v-.419c0-.098.039-.136.134-.136h2.916c.083 0 .127.036.129.122q.004.181 0 .367c-.002.087-.048.123-.144.123l-.727-.001h-.07z"/></g><defs><clipPath id="a"><path fill="#fff" d="M5 4h23v25H5z"/></clipPath></defs></svg>
